X: 3
T: BARNDANCE: Hills of Tara
T: If There Weren't Any Men
C: C: Trad.; S: Various
C: Set Leaders: Mars, Tania
Z: [Unedited]; Joseph Chordmichael at The Session
N: https://thesession.org/members/26966/sets/94259
R: Barndance
M: 4/4
L: 1/8
Q: 1/2=86
K: Gmaj
|:Bc|d2G2 GBAB|c2E2 A2AG|FGAB cBcd|e2d2 ~B3c|
d2G2 GBAB|c2E2 A2AG|FGAB cADF|A2G2 G2:||
(3Bcd|:g2ge ~f3d|efec A2AG|FGAB cBcd|e2d2 B2(3Bcd|
g2ge ~f3d|efec A2AG|FGAB cADF|A2G2 G2:||

